;FLAVOR:Marlin
;TIME:28360
;Filament used: 38.5819m
;Layer height: 0.2
;MINX:2.202
;MINY:2.231
;MINZ:0.2
;MAXX:217.798
;MAXY:217.769
;MAXZ:6
;Generated with Cura_SteamEngine 4.8.0
M140 S50
M105
M190 S50
M104 S205
M105
M109 S205
M82 ;absolute extrusion mode
M201 X500.00 Y500.00 Z100.00 E5000.00 ;Setup machine max acceleration
M203 X500.00 Y500.00 Z10.00 E50.00 ;Setup machine max feedrate
M204 P500.00 R1000.00 T500.00 ;Setup Print/Retract/Travel acceleration
M205 X8.00 Y8.00 Z0.40 E5.00 ;Setup Jerk
M220 S100 ;Reset Feedrate
M221 S100 ;Reset Flowrate

G28 ;Home

G92 E0 ;Reset Extruder
G1 Z2.0 F3000 ;Move Z Axis up
G1 X10.1 Y20 Z0.28 F5000.0 ;Move to start position
G1 X10.1 Y200.0 Z0.28 F1500.0 E15 ;Draw the first line
G1 X10.4 Y200.0 Z0.28 F5000.0 ;Move to side a little
G1 X10.4 Y20 Z0.28 F1500.0 E30 ;Draw the second line
G92 E0 ;Reset Extruder
G1 Z2.0 F3000 ;Move Z Axis up

G92 E0
G92 E0
G1 F2700 E-5
;LAYER_COUNT:30
;LAYER:0
M107
G0 F6000 X34.592 Y32.968 Z0.2
;TYPE:SKIRT
G1 F2700 E0
G1 F1200 X34.87 Y32.697 E0.01291
G1 X38.525 Y29.305 E0.17876
G1 X38.818 Y29.047 E0.19175
G1 X42.638 Y25.842 E0.3576
G1 X42.942 Y25.599 E0.37054
G1 X46.916 Y22.589 E0.53635
G1 X47.23 Y22.363 E0.54922
G1 X51.35 Y19.553 E0.71509
G1 X51.678 Y19.341 E0.72808
G1 X55.933 Y16.741 E0.89393
G1 X56.27 Y16.547 E0.90686
G1 X60.648 Y14.163 E1.07266
G1 X60.994 Y13.985 E1.08561
G1 X65.488 Y11.821 E1.2515
G1 X65.844 Y11.661 E1.26448
G1 X70.437 Y9.726 E1.43025
G1 X70.795 Y9.585 E1.44305
G1 X75.481 Y7.878 E1.60893
G1 X75.853 Y7.753 E1.62198
G1 X80.618 Y6.284 E1.78782
G1 X80.991 Y6.179 E1.80071
G1 X85.822 Y4.949 E1.96652
G1 X86.2 Y4.863 E1.97941
G1 X91.088 Y3.874 E2.14528
G1 X91.473 Y3.806 E2.15828
G1 X96.404 Y3.063 E2.32414
G1 X96.79 Y3.015 E2.33708
G1 X101.752 Y2.519 E2.50294
G1 X102.138 Y2.49 E2.51581
G1 X107.117 Y2.241 E2.68162
G1 X107.507 Y2.231 E2.6946
G1 X112.492 Y2.231 E2.8604
G1 X112.881 Y2.241 E2.87334
G1 X117.862 Y2.49 E3.03922
G1 X118.249 Y2.519 E3.05212
G1 X123.209 Y3.015 E3.21792
G1 X123.595 Y3.063 E3.23086
G1 X128.527 Y3.806 E3.39675
G1 X128.91 Y3.874 E3.40968
G1 X133.798 Y4.862 E3.57555
G1 X134.179 Y4.949 E3.58854
G1 X139.01 Y6.18 E3.75436
G1 X139.382 Y6.284 E3.76721
G1 X144.146 Y7.753 E3.93302
G1 X144.516 Y7.878 E3.94601
G1 X149.202 Y9.584 E4.11187
G1 X149.563 Y9.725 E4.12476
G1 X154.157 Y11.661 E4.29057
G1 X154.513 Y11.822 E4.30357
G1 X159.006 Y13.986 E4.46944
G1 X159.35 Y14.162 E4.48229
G1 X163.73 Y16.546 E4.64815
G1 X164.069 Y16.742 E4.66117
G1 X168.323 Y19.342 E4.827
G1 X168.649 Y19.553 E4.83991
G1 X172.767 Y22.361 E5.00569
G1 X173.083 Y22.588 E5.01863
G1 X177.059 Y25.6 E5.18453
G1 X177.363 Y25.842 E5.19746
G1 X181.182 Y29.047 E5.36328
G1 X181.472 Y29.303 E5.37615
G1 X185.128 Y32.694 E5.542
G1 X185.409 Y32.968 E5.55505
G1 X188.89 Y36.538 E5.72089
G1 X189.153 Y36.822 E5.73377
G1 X192.451 Y40.559 E5.89954
G1 X192.701 Y40.857 E5.91248
G1 X195.811 Y44.757 E6.07839
G1 X196.046 Y45.066 E6.0913
G1 X198.956 Y49.113 E6.25709
G1 X199.175 Y49.435 E6.27004
G1 X201.881 Y53.624 E6.43591
G1 X202.084 Y53.957 E6.44888
G1 X204.577 Y58.276 E6.61474
G1 X204.762 Y58.616 E6.62762
G1 X207.037 Y63.052 E6.79343
G1 X207.207 Y63.403 E6.8064
G1 X209.258 Y67.949 E6.97228
G1 X209.409 Y68.307 E6.9852
G1 X211.23 Y72.947 E7.15099
G1 X211.363 Y73.313 E7.16394
G1 X212.951 Y78.04 E7.3298
G1 X213.065 Y78.411 E7.34271
G1 X214.416 Y83.212 E7.50859
G1 X214.513 Y83.59 E7.52157
G1 X215.622 Y88.45 E7.68737
G1 X215.698 Y88.83 E7.70026
G1 X216.564 Y93.74 E7.86609
G1 X216.622 Y94.125 E7.87904
G1 X217.242 Y99.073 E8.04489
G1 X217.281 Y99.459 E8.0578
G1 X217.654 Y104.43 E8.2236
G1 X217.674 Y104.82 E8.23659
G1 X217.798 Y109.806 E8.40247
G1 X217.798 Y110.194 E8.41538
G1 X217.674 Y115.179 E8.58123
G1 X217.654 Y115.569 E8.59422
G1 X217.281 Y120.541 E8.76005
G1 X217.242 Y120.927 E8.77296
G1 X216.622 Y125.873 E8.93875
G1 X216.565 Y126.257 E8.95166
G1 X215.699 Y131.169 E9.11755
G1 X215.622 Y131.55 E9.13048
G1 X214.513 Y136.412 E9.29635
G1 X214.416 Y136.791 E9.30936
G1 X213.065 Y141.59 E9.47518
G1 X212.951 Y141.961 E9.48809
G1 X211.363 Y146.686 E9.65388
G1 X211.23 Y147.05 E9.66677
G1 X209.409 Y151.692 E9.83262
G1 X209.258 Y152.051 E9.84557
G1 X207.207 Y156.596 E10.01142
G1 X207.038 Y156.946 E10.02434
G1 X204.764 Y161.382 E10.19014
G1 X204.578 Y161.724 E10.20309
G1 X202.084 Y166.044 E10.369
G1 X201.881 Y166.376 E10.38194
G1 X199.177 Y170.563 E10.54772
G1 X198.957 Y170.885 E10.56069
G1 X196.045 Y174.934 E10.72657
G1 X195.812 Y175.243 E10.73944
G1 X192.704 Y179.141 E10.90526
G1 X192.453 Y179.439 E10.91822
G1 X189.153 Y183.178 E11.08409
G1 X188.889 Y183.463 E11.09701
G1 X185.408 Y187.032 E11.26282
G1 X185.13 Y187.303 E11.27574
G1 X181.475 Y190.695 E11.44159
G1 X181.182 Y190.953 E11.45457
G1 X177.362 Y194.158 E11.62042
G1 X177.058 Y194.401 E11.63337
G1 X173.084 Y197.411 E11.79918
G1 X172.77 Y197.637 E11.81204
G1 X168.65 Y200.447 E11.97791
G1 X168.322 Y200.659 E11.9909
G1 X164.067 Y203.259 E12.15675
G1 X163.73 Y203.453 E12.16969
G1 X159.352 Y205.837 E12.33549
G1 X159.006 Y206.015 E12.34843
G1 X154.512 Y208.179 E12.51433
G1 X154.156 Y208.339 E12.52731
G1 X149.563 Y210.274 E12.69308
G1 X149.205 Y210.415 E12.70587
G1 X144.519 Y212.122 E12.87175
G1 X144.147 Y212.247 E12.8848
G1 X139.382 Y213.716 E13.05065
G1 X139.009 Y213.821 E13.06354
G1 X134.178 Y215.051 E13.22934
G1 X133.8 Y215.137 E13.24224
G1 X128.912 Y216.126 E13.40811
G1 X128.527 Y216.194 E13.42111
G1 X123.596 Y216.937 E13.58697
G1 X123.21 Y216.985 E13.5999
G1 X118.248 Y217.481 E13.76576
G1 X117.862 Y217.51 E13.77864
G1 X112.883 Y217.759 E13.94445
G1 X112.493 Y217.769 E13.95742
G1 X107.508 Y217.769 E14.12322
G1 X107.119 Y217.759 E14.13617
G1 X102.138 Y217.51 E14.30204
G1 X101.751 Y217.481 E14.31495
G1 X96.791 Y216.985 E14.48074
G1 X96.405 Y216.937 E14.49368
G1 X91.473 Y216.194 E14.65957
G1 X91.09 Y216.126 E14.67251
G1 X86.202 Y215.138 E14.83837
G1 X85.821 Y215.051 E14.85137
G1 X80.99 Y213.82 E15.01718
G1 X80.618 Y213.716 E15.03003
G1 X75.854 Y212.247 E15.19584
G1 X75.484 Y212.122 E15.20883
G1 X70.798 Y210.416 E15.3747
G1 X70.437 Y210.275 E15.38759
G1 X65.841 Y208.338 E15.55347
G1 X65.485 Y208.177 E15.56647
G1 X60.994 Y206.014 E15.73226
G1 X60.65 Y205.838 E15.74511
G1 X56.27 Y203.454 E15.91097
G1 X55.931 Y203.258 E15.924
G1 X51.677 Y200.658 E16.08982
G1 X51.351 Y200.447 E16.10274
G1 X47.233 Y197.639 E16.26851
G1 X46.917 Y197.412 E16.28145
G1 X42.941 Y194.4 E16.44736
G1 X42.637 Y194.158 E16.46028
G1 X38.818 Y190.953 E16.62611
G1 X38.528 Y190.697 E16.63897
G1 X34.872 Y187.306 E16.80482
G1 X34.591 Y187.032 E16.81788
G1 X31.11 Y183.462 E16.98372
G1 X30.847 Y183.178 E16.99659
G1 X27.547 Y179.439 E17.16246
G1 X27.296 Y179.141 E17.17542
G1 X24.188 Y175.243 E17.34123
G1 X23.954 Y174.934 E17.35413
G1 X21.043 Y170.886 E17.51996
G1 X20.824 Y170.564 E17.53291
G1 X18.119 Y166.376 E17.69874
G1 X17.916 Y166.043 E17.71171
G1 X15.423 Y161.724 E17.87757
G1 X15.237 Y161.384 E17.89046
G1 X12.961 Y156.946 E18.05635
G1 X12.792 Y156.595 E18.06931
G1 X10.742 Y152.051 E18.23511
G1 X10.591 Y151.693 E18.24803
G1 X8.769 Y147.051 E18.41389
G1 X8.636 Y146.684 E18.42687
G1 X7.049 Y141.959 E18.59266
G1 X6.935 Y141.589 E18.60553
G1 X5.584 Y136.788 E18.77142
G1 X5.487 Y136.41 E18.7844
G1 X4.378 Y131.55 E18.9502
G1 X4.302 Y131.17 E18.96309
G1 X3.436 Y126.26 E19.12891
G1 X3.378 Y125.875 E19.14186
G1 X2.758 Y120.927 E19.30772
G1 X2.719 Y120.541 E19.32063
G1 X2.346 Y115.57 E19.48643
G1 X2.326 Y115.18 E19.49941
G1 X2.202 Y110.194 E19.6653
G1 X2.202 Y109.806 E19.67821
G1 X2.326 Y104.821 E19.84406
G1 X2.346 Y104.431 E19.85705
G1 X2.719 Y99.459 E20.02288
G1 X2.758 Y99.073 E20.03579
G1 X3.378 Y94.127 E20.20158
G1 X3.435 Y93.743 E20.21449
G1 X4.301 Y88.831 E20.38038
G1 X4.378 Y88.45 E20.39331
G1 X5.487 Y83.588 E20.55917
G1 X5.584 Y83.209 E20.57219
G1 X6.935 Y78.41 E20.73801
G1 X7.049 Y78.039 E20.75092
G1 X8.637 Y73.314 E20.91671
G1 X8.77 Y72.95 E20.9296
G1 X10.591 Y68.308 E21.09545
G1 X10.742 Y67.949 E21.1084
G1 X12.793 Y63.404 E21.27425
G1 X12.962 Y63.054 E21.28717
G1 X15.236 Y58.618 E21.45297
G1 X15.422 Y58.276 E21.46592
G1 X17.916 Y53.956 E21.63183
G1 X18.119 Y53.624 E21.64477
G1 X20.823 Y49.437 E21.81055
G1 X21.043 Y49.115 E21.82352
G1 X23.955 Y45.066 E21.9894
G1 X24.188 Y44.757 E22.00227
G1 X27.296 Y40.859 E22.16809
G1 X27.547 Y40.561 E22.18105
G1 X30.847 Y36.822 E22.34691
G1 X31.111 Y36.537 E22.35983
G1 X34.592 Y32.968 E22.52565
G0 F6000 X34.879 Y33.247
G1 F1200 X35.142 Y32.99 E22.53788
G1 X38.797 Y29.598 E22.70373
G1 X39.075 Y29.353 E22.71606
G1 X42.895 Y26.148 E22.88191
G1 X43.183 Y25.918 E22.89417
G1 X47.157 Y22.908 E23.05998
G1 X47.455 Y22.694 E23.07218
G1 X51.575 Y19.884 E23.23805
G1 X51.887 Y19.683 E23.25039
G1 X56.142 Y17.083 E23.41624
G1 X56.461 Y16.898 E23.42851
G1 X60.839 Y14.514 E23.59431
G1 X61.167 Y14.346 E23.60657
G1 X65.661 Y12.182 E23.77246
G1 X65.999 Y12.029 E23.7848
G1 X70.592 Y10.094 E23.95057
G1 X70.932 Y9.961 E23.96271
G1 X75.618 Y8.254 E24.12859
G1 X75.971 Y8.135 E24.14098
G1 X80.736 Y6.666 E24.30683
G1 X81.09 Y6.567 E24.31905
G1 X85.921 Y5.337 E24.48486
G1 X86.279 Y5.255 E24.49707
G1 X91.167 Y4.266 E24.66294
G1 X91.532 Y4.202 E24.67527
G1 X96.463 Y3.459 E24.84113
G1 X96.83 Y3.413 E24.85343
G1 X101.792 Y2.917 E25.01929
G1 X102.158 Y2.889 E25.0315
G1 X107.137 Y2.64 E25.1973
G1 X107.507 Y2.631 E25.20961
G1 X112.492 Y2.631 E25.37542
G1 X112.861 Y2.64 E25.38769
G1 X117.842 Y2.889 E25.55357
G1 X118.209 Y2.917 E25.56581
G1 X123.169 Y3.413 E25.7316
G1 X123.535 Y3.459 E25.74387
G1 X128.467 Y4.202 E25.90976
G1 X128.831 Y4.266 E25.92205
G1 X133.719 Y5.254 E26.08792
G1 X134.08 Y5.336 E26.10023
G1 X138.911 Y6.567 E26.26605
G1 X139.265 Y6.667 E26.27828
G1 X144.029 Y8.136 E26.44409
G1 X144.38 Y8.253 E26.4564
G1 X149.066 Y9.959 E26.62226
G1 X149.408 Y10.094 E26.63449
G1 X154.002 Y12.03 E26.8003
G1 X154.339 Y12.182 E26.8126
G1 X158.832 Y14.346 E26.97847
G1 X159.159 Y14.513 E26.99068
G1 X163.539 Y16.897 E27.15654
G1 X163.86 Y17.083 E27.16888
G1 X168.114 Y19.683 E27.3347
G1 X168.424 Y19.883 E27.34697
G1 X172.542 Y22.691 E27.51275
G1 X172.841 Y22.906 E27.525
G1 X176.817 Y25.918 E27.6909
G1 X177.106 Y26.149 E27.70321
G1 X180.925 Y29.354 E27.86903
G1 X181.2 Y29.596 E27.88121
G1 X184.856 Y32.987 E28.04707
G1 X185.122 Y33.247 E28.05944
G1 X188.603 Y36.817 E28.22528
G1 X188.853 Y37.086 E28.23749
G1 X192.151 Y40.823 E28.40327
G1 X192.389 Y41.106 E28.41557
G1 X195.499 Y45.006 E28.58147
G1 X195.721 Y45.3 E28.59373
G1 X198.631 Y49.347 E28.75952
G1 X198.839 Y49.652 E28.7718
G1 X201.545 Y53.841 E28.93766
G1 X201.738 Y54.157 E28.94998
G1 X204.231 Y58.476 E29.11584
G1 X204.407 Y58.798 E29.12805
G1 X206.682 Y63.234 E29.29386
G1 X206.842 Y63.568 E29.30618
G1 X208.893 Y68.114 E29.47206
G1 X209.036 Y68.454 E29.48432
G1 X210.857 Y73.094 E29.65011
G1 X210.984 Y73.44 E29.66237
G1 X212.572 Y78.167 E29.82822
G1 X212.68 Y78.519 E29.84047
G1 X214.031 Y83.32 E30.00635
G1 X214.123 Y83.679 E30.01868
G1 X215.232 Y88.539 E30.18448
G1 X215.305 Y88.9 E30.19673
G1 X216.171 Y93.81 E30.36256
G1 X216.226 Y94.175 E30.37483
G1 X216.846 Y99.123 E30.54069
G1 X216.882 Y99.489 E30.55292
G1 X217.255 Y104.46 E30.71873
G1 X217.274 Y104.83 E30.73105
G1 X217.398 Y109.816 E30.89693
G1 X217.398 Y110.184 E30.90917
G1 X217.274 Y115.169 E31.07503
G1 X217.255 Y115.539 E31.08735
G1 X216.882 Y120.511 E31.25318
G1 X216.846 Y120.877 E31.26542
G1 X216.226 Y125.823 E31.43121
G1 X216.171 Y126.188 E31.44348
G1 X215.305 Y131.1 E31.60938
G1 X215.232 Y131.461 E31.62163
G1 X214.123 Y136.323 E31.78749
G1 X214.031 Y136.682 E31.79982
G1 X212.68 Y141.481 E31.96564
G1 X212.571 Y141.833 E31.97789
G1 X210.983 Y146.558 E32.14369
G1 X210.858 Y146.903 E32.15589
G1 X209.037 Y151.545 E32.32174
G1 X208.893 Y151.887 E32.33408
G1 X206.842 Y156.432 E32.49993
G1 X206.682 Y156.764 E32.51219
G1 X204.408 Y161.2 E32.67798
G1 X204.232 Y161.524 E32.69025
G1 X201.738 Y165.844 E32.85616
G1 X201.545 Y166.159 E32.86844
G1 X198.841 Y170.346 E33.03422
G1 X198.633 Y170.652 E33.04653
G1 X195.721 Y174.701 E33.21241
G1 X195.499 Y174.993 E33.22461
G1 X192.391 Y178.891 E33.39042
G1 X192.153 Y179.175 E33.40275
G1 X188.853 Y182.914 E33.56862
G1 X188.602 Y183.184 E33.58088
G1 X185.121 Y186.753 E33.74669
G1 X184.858 Y187.01 E33.75893
G1 X181.203 Y190.402 E33.92478
G1 X180.925 Y190.647 E33.9371
G1 X177.105 Y193.852 E34.10295
G1 X176.817 Y194.082 E34.11521
G1 X172.843 Y197.092 E34.28102
G1 X172.545 Y197.306 E34.29322
G1 X168.425 Y200.116 E34.45909
G1 X168.113 Y200.317 E34.47143
G1 X163.858 Y202.917 E34.63729
G1 X163.539 Y203.102 E34.64955
G1 X159.161 Y205.486 E34.81535
G1 X158.833 Y205.654 E34.82761
G1 X154.339 Y207.818 E34.99351
G1 X154.001 Y207.971 E35.00585
G1 X149.408 Y209.906 E35.17161
G1 X149.068 Y210.039 E35.18376
G1 X144.382 Y211.746 E35.34963
G1 X144.029 Y211.865 E35.36202
G1 X139.264 Y213.334 E35.52787
G1 X138.91 Y213.433 E35.54009
G1 X134.079 Y214.663 E35.7059
G1 X133.721 Y214.745 E35.71812
G1 X128.833 Y215.734 E35.88399
G1 X128.468 Y215.798 E35.89631
G1 X123.537 Y216.541 E36.06217
G1 X123.17 Y216.587 E36.07447
G1 X118.208 Y217.083 E36.24033
G1 X117.842 Y217.111 E36.25254
G1 X112.863 Y217.36 E36.41835
G1 X112.493 Y217.369 E36.43066
G1 X107.508 Y217.369 E36.59646
G1 X107.139 Y217.36 E36.60873
G1 X102.158 Y217.111 E36.77461
G1 X101.791 Y217.083 E36.78685
G1 X96.831 Y216.587 E36.95265
G1 X96.465 Y216.541 E36.96491
G1 X91.533 Y215.798 E37.1308
G1 X91.169 Y215.734 E37.1431
G1 X86.281 Y214.746 E37.30896
G1 X85.92 Y214.664 E37.32127
G1 X81.089 Y213.433 E37.48709
G1 X80.735 Y213.333 E37.49932
G1 X75.971 Y211.864 E37.66514
G1 X75.62 Y211.747 E37.67744
G1 X70.934 Y210.041 E37.84331
G1 X70.592 Y209.906 E37.85553
G1 X65.996 Y207.969 E38.02142
G1 X65.659 Y207.817 E38.03372
G1 X61.168 Y205.654 E38.19951
G1 X60.841 Y205.487 E38.21172
G1 X56.461 Y203.103 E38.37758
G1 X56.14 Y202.917 E38.38992
G1 X51.886 Y200.317 E38.55574
G1 X51.576 Y200.117 E38.56801
G1 X47.458 Y197.309 E38.73379
G1 X47.159 Y197.094 E38.74604
G1 X43.183 Y194.082 E38.91194
G1 X42.894 Y193.851 E38.92425
G1 X39.075 Y190.646 E39.09007
G1 X38.8 Y190.404 E39.10226
G1 X35.144 Y187.013 E39.26811
G1 X34.878 Y186.753 E39.28048
G1 X31.397 Y183.183 E39.44632
G1 X31.147 Y182.914 E39.45854
G1 X27.847 Y179.175 E39.6244
G1 X27.609 Y178.891 E39.63673
G1 X24.501 Y174.993 E39.80254
G1 X24.279 Y174.7 E39.81477
G1 X21.368 Y170.652 E39.9806
G1 X21.16 Y170.347 E39.99288
G1 X18.455 Y166.159 E40.15871
G1 X18.262 Y165.843 E40.17102
G1 X15.769 Y161.524 E40.33688
G1 X15.593 Y161.202 E40.34909
G1 X13.317 Y156.764 E40.51498
G1 X13.157 Y156.43 E40.5273
G1 X11.107 Y151.886 E40.6931
G1 X10.964 Y151.547 E40.70534
G1 X9.142 Y146.905 E40.8712
G1 X9.015 Y146.557 E40.88352
G1 X7.428 Y141.832 E41.0493
G1 X7.32 Y141.481 E41.06151
G1 X5.969 Y136.68 E41.2274
G1 X5.877 Y136.321 E41.23972
G1 X4.768 Y131.461 E41.40552
G1 X4.695 Y131.1 E41.41777
G1 X3.829 Y126.19 E41.5836
G1 X3.774 Y125.825 E41.59588
G1 X3.154 Y120.877 E41.76174
G1 X3.118 Y120.511 E41.77397
G1 X2.745 Y115.54 E41.93977
G1 X2.726 Y115.17 E41.95209
G1 X2.602 Y110.184 E42.11798
G1 X2.602 Y109.816 E42.13022
G1 X2.726 Y104.831 E42.29607
G1 X2.745 Y104.461 E42.30839
G1 X3.118 Y99.489 E42.47423
G1 X3.154 Y99.123 E42.48646
G1 X3.774 Y94.177 E42.65225
G1 X3.829 Y93.812 E42.66453
G1 X4.695 Y88.9 E42.83042
G1 X4.768 Y88.539 E42.84267
G1 X5.877 Y83.677 E43.00853
G1 X5.969 Y83.318 E43.02086
G1 X7.32 Y78.519 E43.18668
G1 X7.429 Y78.167 E43.19894
G1 X9.017 Y73.442 E43.36473
G1 X9.142 Y73.097 E43.37693
G1 X10.963 Y68.455 E43.54278
G1 X11.107 Y68.113 E43.55512
G1 X13.158 Y63.568 E43.72097
G1 X13.318 Y63.236 E43.73323
G1 X15.592 Y58.8 E43.89903
G1 X15.768 Y58.476 E43.91129
G1 X18.262 Y54.156 E44.0772
G1 X18.455 Y53.841 E44.08949
G1 X21.159 Y49.654 E44.25526
G1 X21.367 Y49.348 E44.26757
G1 X24.279 Y45.299 E44.43345
G1 X24.501 Y45.007 E44.44565
G1 X27.609 Y41.109 E44.61147
G1 X27.847 Y40.825 E44.62379
G1 X31.147 Y37.086 E44.78966
G1 X31.398 Y36.816 E44.80192
G1 X34.879 Y33.247 E44.96774
G0 F6000 X35.165 Y33.526
G1 F1200 X35.414 Y33.283 E44.97931
G1 X39.069 Y29.891 E45.14516
G1 X39.332 Y29.659 E45.15682
G1 X43.152 Y26.454 E45.32267
G1 X43.425 Y26.237 E45.33427
G1 X47.399 Y23.227 E45.50008
